X:100
T:Mathew Briggs
B:Preston's Twenty four COUNTRY DANCES for the Year 1801
L:1/8
M:6/8
O:England
Z:Richard Robinson 
%%Dancenotes:Set & half right & left -- same back down the midle & Allemande
%%Page:10
%%TUNEURL: http://www.leeds.ac.uk/music/Info/RRTuneBk/gettune/00001175.html
%%ID:00001175
K:A dorian
ABA a3 | gef g3 | cdc edc | B2g dBG | \
ABA a3 | gef g3 | e3 de=f | edB A3 ::
cdc e=fe | d2d ded | cdc edc | B2g dBG | \
cdc edc  | deg a2g | e3  deg | edB A3 ::
